assets/icons/qvision/crop_square.svg

<svg xmlns="http://www.w3.org/2000/svg" height="24" viewBox="0 0 24 24" width="24"><path d="M0 0h24v24H0z" fill="none"/><path d="M18 4H6c-1.1 0-2 .9-2 2v12c0 1.1.9 2 2 2h12c1.1 0 2-.9 2-2V6c0-1.1-.9-2-2-2zm0 14H6V6h12v12z"/></svg>

<svg width="24" height="24" viewBox="0 0 24 24" fill="none" xmlns="http://www.w3.org/2000/svg">
<g clip-path="url(#clip0_147_3357)">
<path d="M18 4H6C4.9 4 4 4.9 4 6V18C4 19.1 4.9 20 6 20H18C19.1 20 20 19.1 20 18V6C20 4.9 19.1 4 18 4ZM18 18H6V6H18V18Z" fill="#323232"/>
</g>
<defs>
<clipPath id="clip0_147_3357">
<rect width="24" height="24" fill="white"/>
</clipPath>
</defs>
</svg>
